icon-svg/uk-scouts.svg

<svg xmlns="http://www.w3.org/2000/svg" fill="#44739e" viewBox="0 0 24 24"><path d="M17.678 14.515a.57.57 0 0 0-.161 0H6.446c-.213 0-.213 0-.214.206v.53c0 .208 0 .208.209.208H17.78c0-.3 0-.576-.005-.85 0-.036-.058-.081-.097-.094m3.838-4.461a2.93 2.93 0 0 0-2.945-1.383 3.27 3.27 0 0 0-2.056 1.1 6.62 6.62 0 0 0-1.549 2.964c-.069.273-.112.553-.172.854.32 0 .594-.006.868 0 .122 0 .154-.045.173-.156a5.905 5.905 0 0 1 1.208-2.755 2.5 2.5 0 0 1 1.833-1.042A2.047 2.047 0 0 1 21 11.577c.014.2 0 .408 0 .628l.922.2a.6.6 0 0 0 .031-.084 3.086 3.086 0 0 0-.437-2.267m-14.363.86a6.19 6.19 0 0 1 1.04 2.551c.008.046.055.121.085.122.3.01.607.006.921.006a1 1 0 0 0 0-.127 7.26 7.26 0 0 0-.408-1.574 5.874 5.874 0 0 0-1.68-2.483 3.076 3.076 0 0 0-2.463-.736A2.926 2.926 0 0 0 2.29 10.45a3.034 3.034 0 0 0-.208 1.957l.958-.207c-.013-.158-.036-.3-.034-.44a2.8 2.8 0 0 1 .044-.438A2.036 2.036 0 0 1 5.8 9.778a3.027 3.027 0 0 1 1.353 1.136m6.686 5.563c-.019-.079-.052-.1-.128-.1h-.899c.008.064.011.1.017.13a5.62 5.62 0 0 0 .752 1.917.175.175 0 0 1-.006.223 4.26 4.26 0 0 1-1.482 1.339.222.222 0 0 1-.183-.008 4.274 4.274 0 0 1-1.467-1.334.174.174 0 0 1 0-.223 5.4 5.4 0 0 0 .634-1.433c.054-.194.1-.393.144-.6h-1.009a5.52 5.52 0 0 1-.937 1.989.22.22 0 0 0 0 .18 5 5 0 0 0 2.657 2.542.207.207 0 0 0 .151 0 5.04 5.04 0 0 0 2.669-2.552.169.169 0 0 0-.02-.2 4.92 4.92 0 0 1-.893-1.87m-4.567-5.733a13.37 13.37 0 0 1 .85 2.2c.053.212.092.427.136.638h.98c0-.062 0-.115-.01-.167a9.04 9.04 0 0 0-.68-2.256c-.288-.676-.589-1.347-.852-2.032a3.076 3.076 0 0 1-.179-1.747 3.592 3.592 0 0 1 1.309-2.071c.375-.309.752-.614 1.129-.921a.43.43 0 0 1 .064-.037c.1.084.188.166.282.244.421.353.874.674 1.257 1.064a3.024 3.024 0 0 1 .842 3.195 16.9 16.9 0 0 1-.64 1.64 13.15 13.15 0 0 0-.873 2.4c-.049.226-.082.456-.124.7h.993c.011-.042.025-.079.031-.116a8.6 8.6 0 0 1 .672-2.092c.27-.63.556-1.254.794-1.9a4.088 4.088 0 0 0 .144-2.61 4.726 4.726 0 0 0-1.766-2.486 9.86 9.86 0 0 1-1.516-1.37 1.4 1.4 0 0 1-.085-.129c-.064.067-.1.1-.131.137-.413.384-.823.77-1.24 1.149a13.8 13.8 0 0 0-1.071.961 4.034 4.034 0 0 0-1.014 3.691 9.55 9.55 0 0 0 .698 1.915"/></svg>

<?xml version="1.0" encoding="UTF-8"?>
<svg width="24px" fill="#44739e" height="24px" viewBox="0 0 24 24" version="1.1" xmlns="http://www.w3.org/2000/svg" xmlns:xlink="http://www.w3.org/1999/xlink">
            <path d="m 17.678,14.515 a 0.574,0.574 0 0 0 -0.161,0 H 6.446 c -0.213,0 -0.213,0 -0.214,0.206 v 0.53 c 0,0.208 0,0.208 0.209,0.208 H 17.78 c 0,-0.3 0,-0.576 -0.005,-0.85 0,-0.036 -0.058,-0.081 -0.097,-0.094 z m 3.838,-4.461 a 2.93,2.93 0 0 0 -2.945,-1.383 3.269,3.269 0 0 0 -2.056,1.1 6.619,6.619 0 0 0 -1.549,2.964 c -0.069,0.273 -0.112,0.553 -0.172,0.854 0.32,0 0.594,-0.006 0.868,0 0.122,0 0.154,-0.045 0.173,-0.156 A 5.905,5.905 0 0 1 17.043,10.678 2.5,2.5 0 0 1 18.876,9.636 2.047,2.047 0 0 1 21,11.577 c 0.014,0.2 0,0.408 0,0.628 l 0.922,0.2 a 0.587,0.587 0 0 0 0.031,-0.084 3.086,3.086 0 0 0 -0.437,-2.267 z m -14.363,0.86 a 6.189,6.189 0 0 1 1.04,2.551 c 0.008,0.046 0.055,0.121 0.085,0.122 0.3,0.01 0.607,0.006 0.921,0.006 a 1.046,1.046 0 0 0 0,-0.127 A 7.261,7.261 0 0 0 8.791,11.892 5.874,5.874 0 0 0 7.111,9.409 3.076,3.076 0 0 0 4.648,8.673 2.926,2.926 0 0 0 2.29,10.45 3.034,3.034 0 0 0 2.082,12.407 L 3.04,12.2 C 3.027,12.042 3.004,11.9 3.006,11.76 A 2.815,2.815 0 0 1 3.05,11.322 2.036,2.036 0 0 1 5.8,9.778 3.027,3.027 0 0 1 7.153,10.914 Z m 6.686,5.563 c -0.019,-0.079 -0.052,-0.1 -0.128,-0.1 -0.182,0 -0.364,0 -0.545,0 h -0.354 c 0.008,0.064 0.011,0.1 0.017,0.13 a 5.62,5.62 0 0 0 0.752,1.917 0.175,0.175 0 0 1 -0.006,0.223 4.261,4.261 0 0 1 -1.482,1.339 0.222,0.222 0 0 1 -0.183,-0.008 4.274,4.274 0 0 1 -1.467,-1.334 0.174,0.174 0 0 1 0,-0.223 5.406,5.406 0 0 0 0.634,-1.433 c 0.054,-0.194 0.1,-0.393 0.144,-0.6 h -1.009 a 5.523,5.523 0 0 1 -0.937,1.989 0.221,0.221 0 0 0 0,0.18 5,5 0 0 0 2.657,2.542 0.207,0.207 0 0 0 0.151,0 5.04,5.04 0 0 0 2.669,-2.552 0.169,0.169 0 0 0 -0.02,-0.2 4.92,4.92 0 0 1 -0.893,-1.87 z M 9.272,10.744 a 13.37,13.37 0 0 1 0.85,2.2 c 0.053,0.212 0.092,0.427 0.136,0.638 h 0.98 c 0,-0.062 0,-0.115 -0.01,-0.167 a 9.038,9.038 0 0 0 -0.68,-2.256 C 10.26,10.483 9.959,9.812 9.696,9.127 A 3.076,3.076 0 0 1 9.517,7.38 3.592,3.592 0 0 1 10.826,5.309 C 11.201,5 11.578,4.695 11.955,4.388 a 0.431,0.431 0 0 1 0.064,-0.037 c 0.1,0.084 0.188,0.166 0.282,0.244 0.421,0.353 0.874,0.674 1.257,1.064 a 3.024,3.024 0 0 1 0.842,3.195 16.863,16.863 0 0 1 -0.64,1.64 13.146,13.146 0 0 0 -0.873,2.4 c -0.049,0.226 -0.082,0.456 -0.124,0.7 h 0.993 c 0.011,-0.042 0.025,-0.079 0.031,-0.116 a 8.588,8.588 0 0 1 0.672,-2.092 c 0.27,-0.63 0.556,-1.254 0.794,-1.9 A 4.088,4.088 0 0 0 15.397,6.876 4.726,4.726 0 0 0 13.631,4.39 9.855,9.855 0 0 1 12.115,3.02 1.377,1.377 0 0 1 12.03,2.891 c -0.064,0.067 -0.1,0.1 -0.131,0.137 -0.413,0.384 -0.823,0.77 -1.24,1.149 A 13.83,13.83 0 0 0 9.588,5.138 4.034,4.034 0 0 0 8.574,8.829 9.545,9.545 0 0 0 9.272,10.744 Z"/>

</svg>
